;FLAVOR:Marlin
;TIME:670
;Filament used: 0.321771m
;Layer height: 0.2
;MINX:108.899
;MINY:105.015
;MINZ:0.2
;MAXX:132.3
;MAXY:129.991
;MAXZ:5
;Generated with Cura_SteamEngine 99.10.0-Arachne_engine_beta_2
M140 S60
M105
M190 S60
M104 S205
M105
M109 S205
M82 ;absolute extrusion mode
; Ender 3 Custom Start G-code
G92 E0 ; Reset Extruder
G28 ; Home all axes
;G29 ; Auto bed leveling (ABL)
G1 Z2.0 F3000 ; Move Z Axis up little to prevent scratching of Heat Bed
G1 X0.1 Y20 Z0.3 F5000.0 ; Move to start position
G1 X0.1 Y200.0 Z0.3 F1500.0 E15 ; Draw the first line
G1 X0.4 Y200.0 Z0.3 F5000.0 ; Move to side a little
G1 X0.4 Y20 Z0.3 F1500.0 E30 ; Draw the second line
G92 E0 ; Reset Extruder
G1 Z2.0 F3000 ; Move Z Axis up little to prevent scratching of Heat Bed
G1 X5 Y20 Z0.3 F5000.0 ; Move over to prevent blob squish
G92 E0
G92 E0
G1 F2700 E-5
;LAYER_COUNT:25
;LAYER:0
M107
;MESH:OpenDials_v3-ClosingPin.stl(2)
G0 F6000 X114.799 Y111.832 Z0.2
;TYPE:WALL-INNER
G1 F2700 E0
G1 F1200 X114.799 Y108.832 E0.09978
G1 X110.996 Y108.832 E0.22627
G1 X110.998 Y111.832 E0.32605
G1 X114.799 Y111.832 E0.45247
G0 F6000 X110.699 Y112.122
G0 X110.699 Y112.232
G1 F1200 X115.199 Y112.232 E0.60214
G1 X115.199 Y108.432 E0.72853
G1 X110.699 Y108.432 E0.8782
G1 X110.595 Y108.345 E0.88271
G1 X110.599 Y112.332 E1.01532
G1 X110.699 Y112.232 E1.02002
G1 F2700 E-3.97998
G0 F6000 X110.699 Y112.122
G0 X110.422 Y112.408
G0 X109.334 Y112.409
G0 X109.336 Y115.597
G0 X110.176 Y115.596
;TYPE:WALL-OUTER
G1 F2700 E1.02002
G1 F1375.4 X110.445 Y115.651 E1.02799
G1 X110.525 Y115.654 E1.03031
G1 X110.524 Y112.832 E1.11221
G1 F1280 X110.699 Y112.632 E1.12049
G1 F1200 X115.599 Y112.632 E1.28347
G1 X115.599 Y108.032 E1.43646
G1 X110.699 Y108.032 E1.59944
G1 F1276.6 X110.523 Y107.832 E1.60777
G1 F1363.6 X110.523 Y105.015 E1.69022
G1 F1359.8 X110.169 Y105.071 E1.70074
G1 F1363.6 X110.171 Y107.893 E1.78334
G1 F1276.6 X110.195 Y108.536 E1.80345
G1 F1200 X110.198 Y112.131 E1.92302
G1 F1280 X110.174 Y112.832 E1.94489
G1 F1375.4 X110.176 Y115.596 E2.0251
G1 F2700 E-2.9749
G0 F6000 X109.336 Y115.597
G0 X109.334 Y112.409
G0 X110.422 Y112.408
G0 X114.627 Y111.66
G1 F2700 E2.0251
G0 F6000 X114.439 Y111.472
;TYPE:SKIN
G1 F1200 X114.439 Y109.192 E2.10094
G1 X111.357 Y109.192 E2.20344
G1 X111.358 Y111.472 E2.27928
G1 X114.439 Y111.472 E2.38175
G0 F6000 X114.699 Y111.472
G0 X114.699 Y109.712
G0 X114.238 Y109.712
G1 F1200 X113.917 Y109.392 E2.39683
G0 F6000 X113.352 Y109.392
G1 F1200 X114.238 Y110.278 E2.4385
G0 F6000 X114.238 Y110.843
G1 F1200 X112.786 Y109.392 E2.50678
G0 F6000 X112.22 Y109.392
G1 F1200 X114.1 Y111.271 E2.59518
G0 F6000 X113.534 Y111.271
G1 F1200 X111.654 Y109.392 E2.68359
G0 F6000 X111.555 Y109.858
G1 F1200 X112.968 Y111.271 E2.75005
G0 F6000 X112.403 Y111.271
G1 F1200 X111.556 Y110.425 E2.78987
G0 F6000 X111.556 Y110.991
G1 F1200 X111.837 Y111.271 E2.80306
G0 F6000 X111.837 Y111.822
G1 F2700 E-2.19694
;MESH:OpenDials_v3-ClosingPin.stl
G0 F6000 X115.375 Y112.408
G0 X115.375 Y113.497
G0 X115.375 Y114.335
G0 X115.375 Y115.43
G0 X119.53 Y116.171
G0 X119.703 Y119
;TYPE:WALL-INNER
G1 F2700 E2.80306
G1 F1200 X119.702 Y115.999 E2.90288
G1 X115.9 Y116 E3.02933
G1 X115.9 Y119 E3.12911
G1 X119.703 Y119 E3.2556
G0 F6000 X120 Y119.4
G1 F1200 X120.104 Y119.504 E3.26049
G1 X120.101 Y115.514 E3.3932
G1 X120 Y115.6 E3.39761
G1 X115.5 Y115.6 E3.54728
G1 X115.5 Y119.4 E3.67367
G1 X120 Y119.4 E3.82334
G1 F2700 E-1.17666
G0 F6000 X120 Y119.29
G0 X120.28 Y119.576
G0 X121.369 Y119.575
G0 X121.371 Y122.76
G0 X120.53 Y122.761
;TYPE:WALL-OUTER
G1 F2700 E3.82334
G1 F1359.8 X120.529 Y120 E3.90438
G1 F1276.6 X120.504 Y119.296 E3.92641
G1 F1200 X120.502 Y115.701 E4.04598
G1 F1276.6 X120.526 Y115 E4.06791
G1 F1367.5 X120.523 Y112.236 E4.14857
G1 F1371.4 X120.254 Y112.183 E4.15655
G1 X120.176 Y112.18 E4.15883
G1 X120.175 Y115.03 E4.24177
G1 F1280 X120 Y115.2 E4.24938
G1 F1200 X115.1 Y115.2 E4.41235
G1 X115.1 Y119.8 E4.56535
G1 X120 Y119.8 E4.72832
G1 F1276.6 X120.176 Y120 E4.73665
G1 F1359.8 X120.177 Y122.815 E4.81928
G1 F1355.9 X120.53 Y122.761 E4.82979
G1 F2700 E-0.17021
G0 F6000 X121.371 Y122.76
G0 X121.369 Y119.575
G0 X120.28 Y119.576
G0 X119.603 Y118.64
G1 F2700 E4.82979
G0 F6000 X119.343 Y118.64
;TYPE:SKIN
G1 F1200 X119.342 Y116.359 E4.90565
G1 X116.26 Y116.36 E5.00816
G1 X116.26 Y118.64 E5.084
G1 X119.343 Y118.64 E5.18654
G0 F6000 X119.603 Y118.64
G0 X119.53 Y116.171
G0 X118.822 Y116.099
G0 X118.822 Y116.559
G1 F1200 X119.141 Y116.879 E5.20157
G0 F6000 X119.141 Y117.444
G1 F1200 X118.256 Y116.559 E5.24319
G0 F6000 X117.69 Y116.559
G1 F1200 X119.142 Y118.011 E5.31149
G0 F6000 X119.005 Y118.439
G1 F1200 X117.125 Y116.559 E5.39992
G0 F6000 X116.559 Y116.559
G1 F1200 X118.439 Y118.439 E5.48835
G0 F6000 X117.873 Y118.439
G1 F1200 X116.459 Y117.025 E5.55486
G0 F6000 X116.459 Y117.591
G1 F1200 X117.308 Y118.439 E5.59477
G0 F6000 X116.742 Y118.439
G1 F1200 X116.459 Y118.156 E5.60808
G0 F6000 X115.91 Y118.156
G1 F2700 E0.60808
;MESH:OpenDials_v3-ClosingPin.stl(1)
G0 F6000 X115.324 Y119.576
G0 X115.324 Y120.665
G0 X115.324 Y121.506
G0 X115.324 Y122.601
G0 X114.804 Y126.171
;TYPE:WALL-INNER
G1 F2700 E5.60808
G1 F1200 X114.804 Y123.171 E5.70786
G1 X111.001 Y123.171 E5.83435
G1 X111.002 Y126.171 E5.93413
G1 X114.804 Y126.171 E6.06059
G0 F6000 X110.704 Y126.461
G0 X110.704 Y126.571
G1 F1200 X115.204 Y126.571 E6.21026
G1 X115.204 Y122.771 E6.33665
G1 X110.704 Y122.771 E6.48632
G1 X110.6 Y122.684 E6.49083
G1 X110.602 Y126.673 E6.6235
G1 X110.704 Y126.571 E6.6283
G1 F2700 E1.6283
G0 F6000 X110.704 Y126.461
G0 X110.427 Y126.747
G0 X109.338 Y126.748
G0 X109.34 Y129.936
G0 X110.181 Y129.935
;TYPE:WALL-OUTER
G1 F2700 E6.6283
G1 F1371.4 X110.45 Y129.988 E6.63628
G1 X110.529 Y129.991 E6.63858
G1 X110.529 Y127.171 E6.72065
G1 F1280 X110.704 Y126.971 E6.72893
G1 F1200 X115.604 Y126.971 E6.89191
G1 X115.604 Y122.371 E7.0449
G1 X110.704 Y122.371 E7.20788
G1 F1276.6 X110.528 Y122.171 E7.21621
G1 F1363.6 X110.528 Y119.355 E7.29863
G1 F1359.8 X110.174 Y119.411 E7.30915
G1 F1363.6 X110.176 Y122.232 E7.39172
G1 F1276.6 X110.2 Y122.875 E7.41183
G1 F1200 X110.202 Y126.469 E7.53137
G1 F1280 X110.177 Y127.171 E7.55327
G1 F1371.4 X110.179 Y129.8 E7.62979
G1 X110.181 Y129.935 E7.63372
G1 F2700 E2.63372
G0 F6000 X109.34 Y129.936
G0 X109.338 Y126.748
G0 X110.427 Y126.747
G0 X114.632 Y125.999
G1 F2700 E7.63372
G0 F6000 X114.444 Y125.811
;TYPE:SKIN
G1 F1200 X114.444 Y123.531 E7.70955
G1 X111.362 Y123.531 E7.81206
G1 X111.362 Y125.811 E7.88789
G1 X114.444 Y125.811 E7.9904
G0 F6000 X114.704 Y125.811
G0 X114.704 Y123.861
G0 X114.244 Y123.861
G1 F1200 X114.113 Y123.73 E7.99656
G0 F6000 X113.547 Y123.73
G1 F1200 X114.244 Y124.426 E8.02932
G0 F6000 X114.244 Y124.992
G1 F1200 X112.982 Y123.73 E8.08868
G0 F6000 X112.416 Y123.73
G1 F1200 X114.244 Y125.558 E8.17466
G0 F6000 X113.731 Y125.61
G1 F1200 X111.85 Y123.73 E8.26312
G0 F6000 X111.561 Y124.006
G1 F1200 X113.165 Y125.61 E8.33856
G0 F6000 X112.599 Y125.61
G1 F1200 X111.561 Y124.572 E8.38739
G0 F6000 X111.561 Y125.138
G1 F1200 X112.033 Y125.61 E8.40959
G0 F6000 X112.033 Y126.161
G1 F2700 E3.40959
;MESH:OpenDials_v3-ClosingPin.stl(3)
G0 F6000 X114.632 Y125.999
G0 X115.38 Y122.595
G0 X116.469 Y122.595
G0 X119.347 Y123.653
G0 X120.518 Y123.633
G0 X121.363 Y123.409
G0 X124.735 Y119.576
G0 X125.824 Y119.576
G0 X126.4 Y119
;TYPE:WALL-INNER
G1 F2700 E8.40959
G1 F1200 X130.203 Y119 E8.53608
G1 X130.202 Y115.999 E8.63589
G1 X126.4 Y116 E8.76235
G1 X126.4 Y119 E8.86213
G0 F6000 X126 Y119.4
G1 F1200 X130.5 Y119.4 E9.0118
G1 X130.604 Y119.504 E9.01669
G1 X130.601 Y115.514 E9.1494
G1 X130.5 Y115.6 E9.15381
G1 X126 Y115.6 E9.30348
G1 X126 Y119.4 E9.42987
G1 F2700 E4.42987
G0 F6000 X126.08 Y119.32
G0 X130.78 Y119.576
G0 X131.869 Y119.575
G0 X131.871 Y122.76
G0 X131.03 Y122.761
;TYPE:WALL-OUTER
G1 F2700 E9.42987
G1 F1359.8 X131.029 Y120 E9.51091
G1 F1276.6 X131.004 Y119.296 E9.53293
G1 F1200 X131.002 Y115.701 E9.6525
G1 F1276.6 X131.026 Y115 E9.67443
G1 F1367.5 X131.023 Y112.236 E9.7551
G1 F1371.4 X130.754 Y112.183 E9.76308
G1 X130.676 Y112.18 E9.76535
G1 X130.675 Y115.03 E9.8483
G1 F1280 X130.5 Y115.2 E9.8559
G1 F1200 X125.6 Y115.2 E10.01888
G1 X125.6 Y119.8 E10.17188
G1 X130.5 Y119.8 E10.33485
G1 F1276.6 X130.676 Y120 E10.34318
G1 F1359.8 X130.677 Y122.815 E10.42581
G1 F1355.9 X131.03 Y122.761 E10.43632
G1 F2700 E5.43632
G0 F6000 X131.871 Y122.76
G0 X131.869 Y119.575
G0 X130.78 Y119.576
G0 X126.572 Y118.828
G1 F2700 E10.43632
G0 F6000 X126.76 Y118.64
;TYPE:SKIN
G1 F1200 X129.843 Y118.64 E10.53886
G1 X129.842 Y116.359 E10.61472
G1 X126.76 Y116.36 E10.71723
G1 X126.76 Y118.64 E10.79306
G0 F6000 X127.491 Y118.44
G1 F1200 X126.958 Y117.907 E10.81814
G0 F6000 X126.958 Y117.342
G1 F1200 X128.057 Y118.44 E10.86981
G0 F6000 X128.622 Y118.44
G1 F1200 X126.958 Y116.776 E10.94808
G0 F6000 X127.308 Y116.56
G1 F1200 X129.188 Y118.44 E11.0365
G0 F6000 X129.642 Y118.328
G1 F1200 X127.873 Y116.56 E11.11969
G0 F6000 X128.438 Y116.559
G1 F1200 X129.642 Y117.762 E11.1763
G0 F6000 X129.642 Y117.197
G1 F1200 X129.004 Y116.559 E11.20631
G0 F6000 X129.57 Y116.559
G1 F1200 X129.642 Y116.631 E11.20969
G0 F6000 X130.191 Y116.63
G1 F2700 E6.20969
;MESH:NONMESH
G0 F300 X130.191 Y116.63 Z0.4
G0 F6000 X130.03 Y116.171
G0 X125.824 Y115.424
G0 X124.735 Y115.424
G0 X121.354 Y111.594
G0 X120.318 Y111.344
G0 X119.348 Y111.33
G0 X116.464 Y112.408
G0 X115.375 Y112.408
G0 X110.708 Y111.948
G1 F2700 E11.20969
G0 F6000 X110.583 Y111.948
;TIME_ELAPSED:35.409058
;LAYER:1
M140 S50
M106 S85
;TYPE:WALL-INNER
;MESH:OpenDials_v3-ClosingPin.stl(2)
G1 F1350 X110.699 Y111.832 E11.21515
G1 X114.999 Y111.832 E11.35817
G1 X114.999 Y108.832 E11.45795
G1 X110.699 Y108.832 E11.60097
G1 X110.585 Y108.736 E11.60593
G1 X110.583 Y111.948 E11.71276
G0 F7500 X110.141 Y112.832
G1 F1508.4 X110.699 Y112.232 E11.73715
G1 F1350 X115.399 Y112.232 E11.89347
G1 X115.399 Y108.432 E12.01986
G1 X110.699 Y108.432 E12.17618
G1 F1491.7 X110.145 Y107.929 E12.19871
G1 X110.185 Y108.946 E12.22934
G1 F1350 X110.184 Y111.716 E12.32147
G1 F1508.4 X110.141 Y112.832 E12.35472
G1 F2700 E7.35472
G0 F7500 X110.263 Y112.152
G0 X110.229 Y115.304
G1 F2700 E12.35472
G0 F7500 X110.499 Y115.625
;TYPE:WALL-OUTER
G1 F1350 X110.499 Y112.832 E12.44761
G1 X110.699 Y112.632 E12.45702
G1 X115.615 Y112.632 E12.62053
G1 X115.799 Y112.448 E12.62918
G1 X115.799 Y108.216 E12.76994
G1 X115.615 Y108.032 E12.77859
G1 X110.699 Y108.032 E12.9421
G1 X110.501 Y107.867 E12.95067
G1 X110.499 Y107.832 E12.95184
G1 X110.499 Y105.042 E13.04463
G1 X110.101 Y105.111 E13.05807
G1 X109.803 Y105.23 E13.06874
G1 X109.786 Y105.476 E13.07694
G1 X109.783 Y115.414 E13.40748
G1 X110.024 Y115.529 E13.41636
G1 X110.303 Y115.603 E13.42596
G1 X110.499 Y115.625 E13.43252
G0 F7500 X110.141 Y115.188
;TYPE:WALL-INNER
G1 F1708.9 X110.141 Y112.832 E13.49443
G0 F7500 X110.263 Y112.152
G0 X110.265 Y108.512
G0 X110.145 Y107.929
G1 F1692.8 X110.142 Y107.832 E13.497
G1 F1719.7 X110.142 Y105.476 E13.55852
G1 F2700 E8.55852
G0 F7500 X110.261 Y108.27
G0 X115.081 Y108.75
G0 X114.899 Y111.472
G1 F2700 E13.55852
G0 F7500 X114.639 Y111.472
;TYPE:SKIN
G1 F1350 X114.639 Y109.192 E13.63435
G1 X110.945 Y109.192 E13.75721
G1 X110.945 Y111.472 E13.83305
G1 X114.639 Y111.472 E13.95591
G0 F7500 X113.871 Y111.271
G1 F1350 X114.438 Y110.704 E13.98258
G0 F7500 X114.438 Y110.138
G1 F1350 X113.305 Y111.271 E14.03587
G0 F7500 X112.739 Y111.271
G1 F1350 X114.438 Y109.573 E14.11576
G0 F7500 X114.053 Y109.392
G1 F1350 X112.174 Y111.271 E14.20415
G0 F7500 X111.608 Y111.271
G1 F1350 X113.487 Y109.392 E14.29253
G0 F7500 X112.922 Y109.392
G1 F1350 X111.145 Y111.169 E14.37611
G0 F7500 X111.145 Y110.603
G1 F1350 X112.356 Y109.392 E14.43308
G0 F7500 X111.79 Y109.392
G1 F1350 X111.145 Y110.037 E14.46341
G0 F7500 X111.145 Y109.472
G1 F1350 X111.225 Y109.392 E14.46718
G0 F7500 X111.225 Y108.842
G1 F2700 E9.46718
;MESH:OpenDials_v3-ClosingPin.stl
G0 F7500 X114.827 Y109.004
G0 X115.522 Y112.404
G0 X115.522 Y113.497
G0 X115.522 Y114.335
G0 X115.522 Y115.43
G0 X119.942 Y116.173
G0 X120 Y119
;TYPE:WALL-INNER
G1 F2700 E14.46718
G1 F1350 X120.114 Y119.114 E14.47254
G1 X120.115 Y115.905 E14.57927
G1 X120 Y116.001 E14.58425
G1 X115.7 Y116 E14.72727
G1 X115.7 Y119 E14.82705
G1 X120 Y119 E14.97007
G0 F7500 X120.434 Y119.32
G0 X120.557 Y120
G1 F1512.6 X120 Y119.4 E14.99437
G1 F1350 X115.3 Y119.4 E15.1507
G1 X115.3 Y115.6 E15.27708
G1 X120 Y115.601 E15.43341
G1 F1495.8 X120.554 Y115.097 E15.45589
G1 X120.515 Y116.116 E15.4865
G1 F1350 X120.514 Y118.886 E15.57863
G1 F1512.6 X120.557 Y120 E15.61172
G1 F2700 E10.61172
G0 F7500 X120.434 Y119.32
G0 X120.471 Y122.472
G1 F2700 E15.61172
G0 F7500 X120.201 Y122.79
;TYPE:WALL-OUTER
G1 F1350 X120.598 Y122.72 E15.62513
G1 X120.896 Y122.601 E15.6358
G1 X120.913 Y122.355 E15.644
G1 X120.916 Y112.418 E15.97451
G1 X120.675 Y112.303 E15.98339
G1 X120.396 Y112.229 E15.99299
G1 X120.2 Y112.207 E15.99955
G1 X120.201 Y115 E16.09245
G1 X120.198 Y115.035 E16.09362
G1 X120 Y115.201 E16.10221
G1 X115.084 Y115.2 E16.26572
G1 X114.9 Y115.384 E16.27437
G1 X114.9 Y119.616 E16.41513
G1 X115.084 Y119.8 E16.42378
G1 X120 Y119.8 E16.58729
G1 X120.2 Y120 E16.5967
G1 X120.201 Y122.79 E16.68949
G0 F7500 X120.557 Y122.355
;TYPE:WALL-INNER
G1 F1725.2 X120.557 Y120 E16.75079
G0 F7500 X120.434 Y119.32
G0 X120.436 Y115.68
G0 X120.554 Y115.097
G1 F1698.1 X120.558 Y115 E16.75335
G1 F1714.3 X120.558 Y112.644 E16.81506
G1 F2700 E11.81506
G0 F7500 X120.45 Y115.158
G0 X120.014 Y118.639
G1 F2700 E16.81506
G0 F7500 X119.754 Y118.639
;TYPE:SKIN
G1 F1350 X119.754 Y116.361 E16.89083
G1 X116.06 Y116.36 E17.01369
G1 X116.06 Y118.64 E17.08952
G1 X119.754 Y118.639 E17.21239
G0 F7500 X119.553 Y118.034
G1 F1350 X119.148 Y118.438 E17.23141
G0 F7500 X118.583 Y118.438
G1 F1350 X119.553 Y117.468 E17.27704
G0 F7500 X119.553 Y116.903
G1 F1350 X118.017 Y118.438 E17.34926
G0 F7500 X117.451 Y118.438
G1 F1350 X119.33 Y116.56 E17.43762
G0 F7500 X118.764 Y116.56
G1 F1350 X116.886 Y118.438 E17.52596
G0 F7500 X116.32 Y118.438
G1 F1350 X118.199 Y116.56 E17.61432
G0 F7500 X117.634 Y116.559
G1 F1350 X116.259 Y117.934 E17.67899
G0 F7500 X116.259 Y117.368
G1 F1350 X117.068 Y116.559 E17.71705
G0 F7500 X116.502 Y116.559
G1 F1350 X116.259 Y116.802 E17.72848
G0 F7500 X115.71 Y116.802
G1 F2700 E12.72848
;MESH:OpenDials_v3-ClosingPin.stl(1)
G0 F7500 X115.177 Y119.572
G0 X115.177 Y120.665
G0 X115.177 Y121.506
G0 X115.177 Y122.601
G0 X110.761 Y123.343
G0 X110.704 Y126.171
;TYPE:WALL-INNER
G1 F2700 E17.72848
G1 F1350 X115.004 Y126.171 E17.87149
G1 X115.004 Y123.171 E17.97128
G1 X110.704 Y123.171 E18.11429
G1 X110.589 Y123.075 E18.11928
G1 X110.588 Y126.287 E18.22611
G1 X110.704 Y126.171 E18.23156
G0 F7500 X110.267 Y126.491
G0 X110.146 Y127.171
G1 F1508.4 X110.188 Y126.054 E18.26484
G1 F1350 X110.189 Y123.286 E18.3569
G1 F1491.7 X110.15 Y122.268 E18.38757
G1 X110.704 Y122.771 E18.41009
G1 F1350 X115.404 Y122.771 E18.56641
G1 X115.404 Y126.571 E18.6928
G1 X110.704 Y126.571 E18.84912
G1 F1508.4 X110.146 Y127.171 E18.87352
G1 F2700 E13.87352
G0 F7500 X110.267 Y126.491
G0 X110.234 Y129.645
G1 F2700 E18.87352
G0 F7500 X110.504 Y129.965
;TYPE:WALL-OUTER
G1 F1350 X110.504 Y127.171 E18.96644
G1 X110.704 Y126.971 E18.97585
G1 X115.62 Y126.971 E19.13936
G1 X115.804 Y126.787 E19.14801
G1 X115.804 Y122.555 E19.28877
G1 X115.62 Y122.371 E19.29742
G1 X110.704 Y122.371 E19.46093
G1 X110.506 Y122.206 E19.4695
G1 X110.504 Y122.171 E19.47067
G1 X110.504 Y119.381 E19.56347
G1 X110.106 Y119.451 E19.57691
G1 X109.807 Y119.57 E19.58761
G1 X109.79 Y119.816 E19.59581
G1 X109.786 Y129.753 E19.92632
G1 X110.028 Y129.869 E19.93524
G1 X110.307 Y129.943 E19.94484
G1 X110.504 Y129.965 E19.95144
G0 F7500 X110.145 Y129.528
;TYPE:WALL-INNER
G1 F1703.5 X110.146 Y127.171 E20.01356
G0 F7500 X110.267 Y126.491
G0 X110.269 Y122.851
G0 X110.15 Y122.268
G1 F1687.5 X110.146 Y122.171 E20.01615
G1 F1714.3 X110.147 Y119.816 E20.07783
G1 F2700 E15.07783
G0 F7500 X110.266 Y122.609
G0 X115.086 Y123.089
G0 X114.904 Y125.811
G1 F2700 E20.07783
G0 F7500 X114.644 Y125.811
;TYPE:SKIN
G1 F1350 X114.644 Y123.531 E20.15366
